X: 73
T: Guardian Angels
%R: reel
B: Chas & Sam Thompson "Twenty Four Country Dances for the Year 1776", London 1776, p.37 #1
F: http://www.vwml.org/browse/browse-collections-dance-tune-books/browse-thompsons1776#
Z: 2014 John Chambers <jc:trillian.mit.edu> (added dance description)
M: C|
L: 1/16
K: A
% - - - - - - - - - - - - - - - - - - - - - - - - - - - - -
|:\
A4 c2e2 d2B2 G2E2 | A2c2B2A2 G2F2E4 | A2E2A2c2 B2E2 B2d2 | (c3d/e/ d2)c2 (c4 B4) |
A4 c2e2 d2B2 G2E2 | (A3B/c/) B2A2 G2F2 E4 | A4 B2c2 F4 (d3e/f/) | e2c2d2B2 A4 A,4 :|
|:\
e4 a3f e6 e2 | e2d2d2c2 c4B4 | e2c2e2c2 d2B2d2B2 | e2c2a2c2 c4B4 |
A4e2c2 a2e2c2A2 | E4B2d2 c2A2E2C2 | F4 G3A E2A2 d2f2 | e2c2 edcB A4 A,4 :|
% - - - - - - - - - - Dance description - - - - - - - - - -
%%begintext align
%% Cast off 2 Cu. & up again .|. cross over 2 Cu. lead up to
%% the top & cast off :|. hands across with the 3d Cu. and
%% back again .|: hands 4 at top right & left :|:
%%endtext

%%sep 1 1 500
%%sep 1 1 500
